public/images/placeofinterrests/paname.svg

<?xml version="1.0" encoding="UTF-8" standalone="no"?>
<svg width="138px" height="46px" viewBox="0 0 138 46" version="1.1" xmlns="http://www.w3.org/2000/svg" xmlns:xlink="http://www.w3.org/1999/xlink">
    <!-- Generator: Sketch 42 (36781) - http://www.bohemiancoding.com/sketch -->
    <title>paname</title>
    <desc>Created with Sketch.</desc>
    <defs></defs>
    <g id="Page-1" stroke="none" stroke-width="1" fill="none" fill-rule="evenodd">
        <g id="paname">
            <g id="Page-1">
                <g id="New-York-Copy">
                    <polygon id="Path-6" fill="#FFFFFF" fill-rule="nonzero" points="0 4 4.34645669 42 130.393701 46 138 0"></polygon>
                    <path d="M13.1360007,13.24 L13.3160007,13.2399995 L20.3000007,13.2399995 L20.3000007,13.2460151 C24.0700163,13.3413433 27.1040007,16.4193276 27.1040007,20.2239995 C27.1040007,24.0171196 24.0702409,27.1061753 20.3000007,27.2019839 L20.3000007,27.208 L16.9040007,27.208 L16.9040007,34 L13.1360007,34 L13.1360007,13.24 Z M16.9040007,16.9959995 L16.9040007,23.4399995 L20.1200007,23.4399995 C21.9069763,23.4399995 23.3480007,21.9983032 23.3480007,20.2239995 C23.3480007,18.4370239 21.9069763,16.9959995 20.1200007,16.9959995 L16.9040007,16.9959995 Z M35.9009929,19.1340156 L33.8819851,25.1939844 L37.9230085,25.1939844 L35.9009929,19.1340156 Z M34.2300163,13.2780156 L37.5660163,13.2780156 L37.7100163,13.2300156 L37.7760007,13.2780156 L37.7760007,13.4190078 L44.5289929,33.69 L44.5800007,33.84 L44.6280007,33.987 L44.5800007,34.05 L44.4329929,34.05 L44.2860163,34.098 L41.0339851,34.05 L40.8899851,34.098 L40.8240007,34.05 L40.8240007,33.897 L39.1740163,28.9500161 L32.6310085,28.9500161 L30.9840007,33.888 L30.9840007,34.05 L30.9180163,34.098 L30.7740168,34.05 L27.5280007,34.05 L27.3660168,34.05 L27.2160007,34.05 L27.1680007,33.984 L27.2160007,33.831 L27.2160007,33.69 L34.0200007,13.428 L34.0200007,13.2780156 L34.2300163,13.2780156 Z M51.9430085,13.156 L51.8529929,13.228 L48.3280007,13.228 L48.3280007,34 L52.0960007,34 L52.0960007,19.06 L56.8360007,25.372 L56.8360007,25.492 L56.9260163,25.492 L56.9800007,25.564 L57.0760007,25.492 L58.5400007,25.492 L58.5400007,34 L62.2960007,34 L62.2960007,13.228 L58.5400007,13.228 L58.5400007,21.4 L52.0960007,13.3449922 L52.0960007,13.228 L52.0000007,13.228 L51.9430085,13.156 Z M74.6689929,19.1340156 L72.6499851,25.1939844 L76.6910085,25.1939844 L74.6689929,19.1340156 Z M72.8540163,13.2300156 L72.9980163,13.2780156 L76.3340163,13.2780156 L76.4780163,13.2300156 L76.4960007,13.2780156 L76.5440007,13.2780156 L76.5440007,13.4190078 L83.2969929,33.69 L83.3480007,33.69 L83.3480007,33.84 L83.3960007,33.987 L83.3480007,34.002 L83.3480007,34.05 L83.2009929,34.05 L83.0540163,34.098 L83.0390085,34.05 L79.8019851,34.05 L79.6579851,34.098 L79.6430085,34.05 L79.5920007,34.05 L79.5920007,33.897 L77.9420163,28.9500161 L71.3990085,28.9500161 L69.7520007,33.888 L69.7520007,34.05 L69.7009929,34.05 L69.6860163,34.098 L69.5420168,34.05 L66.2960007,34.05 L66.2780168,34.098 L66.1340168,34.05 L65.9840007,34.05 L65.9840007,33.999 L65.9360007,33.984 L65.9840007,33.831 L65.9840007,33.69 L66.0320007,33.69 L72.7880007,13.428 L72.7880007,13.2780156 L72.8390085,13.2780156 L72.8540163,13.2300156 Z M87.0960007,13.228 L87.0960007,34 L90.8520007,34 L90.8520007,19.06 L95.5920007,25.372 L95.5920007,25.492 L95.6819851,25.492 L95.7360007,25.564 L95.8320007,25.492 L99.1200007,25.492 L99.2160007,25.564 L99.2700163,25.492 L99.3600007,25.492 L99.3600007,25.372 L104.100001,19.06 L104.100001,34 L107.868001,34 L107.868001,13.228 L104.100001,13.228 L104.100001,13.3420156 L97.4760007,21.628 L90.8520007,13.3449922 L90.8520007,13.228 L87.0960007,13.228 Z M112.120001,13.228 L112.120001,34 L122.680001,34 L122.680001,30.244 L115.876001,30.244 L115.876001,25.504 L120.976001,25.504 L120.976001,21.736 L115.876001,21.736 L115.876001,16.996 L122.680001,16.996 L122.680001,13.228 L112.120001,13.228 Z" id="Paname" fill="#000000"></path>
                </g>
            </g>
        </g>
    </g>
</svg>

<svg width="138" height="46" viewBox="0 0 138 46" xmlns="http://www.w3.org/2000/svg"><title>paname</title><g fill="none" fill-rule="evenodd"><path fill="#FFF" fill-rule="nonzero" d="M0 4l4.346 38 126.048 4L138 0z"/><path d="M13.136 13.24H20.3v.006a6.978 6.978 0 0 1 6.804 6.978c0 3.793-3.034 6.882-6.804 6.978v.006h-3.396V34h-3.768V13.24zm3.768 3.756v6.444h3.216a3.223 3.223 0 0 0 0-6.444h-3.216zm18.997 2.138l-2.019 6.06h4.041l-2.022-6.06zm-1.671-5.856h3.336l.144-.048.066.048v.141l6.753 20.271.051.15.048.147-.048.063h-.147l-.147.048-3.252-.048-.144.048-.066-.048v-.153l-1.65-4.947h-6.543l-1.647 4.938v.162l-.066.048-.144-.048h-3.558l-.048-.066.048-.153v-.141l6.804-20.262v-.15h.21zm17.713-.122l-.09.072h-3.525V34h3.768V19.06l4.74 6.312v.12h.09l.054.072.096-.072h1.464V34h3.756V13.228H58.54V21.4l-6.444-8.055v-.117H52l-.057-.072zm22.726 5.978l-2.019 6.06h4.041l-2.022-6.06zm-1.815-5.904l.144.048h3.336l.144-.048.018.048h.048v.141l6.753 20.271h.051v.15l.048.147-.048.015v.048h-.147l-.147.048-.015-.048h-3.237l-.144.048-.015-.048h-.051v-.153l-1.65-4.947h-6.543l-1.647 4.938v.162h-.051l-.015.048-.144-.048h-3.246l-.018.048-.144-.048h-.15v-.051l-.048-.015.048-.153v-.141h.048l6.756-20.262v-.15h.051l.015-.048zm14.242-.002V34h3.756V19.06l4.74 6.312v.12h.09l.054.072.096-.072h3.288l.096.072.054-.072h.09v-.12l4.74-6.312V34h3.768V13.228H104.1v.114l-6.624 8.286-6.624-8.283v-.117h-3.756zm25.024 0V34h10.56v-3.756h-6.804v-4.74h5.1v-3.768h-5.1v-4.74h6.804v-3.768h-10.56z" fill="#000"/></g></svg>
